plasma/desktoptheme/Materia/icons/phone.svg

<?xml version="1.0" encoding="UTF-8"?>
<svg width="32" height="32" version="1.1" xmlns="http://www.w3.org/2000/svg">
 <g id="22-22-phone" transform="translate(32 10)">
  <rect width="22" height="22" rx="0" ry="0" opacity=".001"/>
  <path transform="translate(-32 -10)" d="m39 13c-1 0-1 1-1 1v14s0 1 1 1h8c1 0 1-1 1-1v-14s0-1-1-1h-8zm7 3v9h-6v-8.998l6-0.001953zm-3.5 10h0.5 0.5c0.277 0 0.5 0.223 0.5 0.5v0.5 0.5c0 0.277-0.223 0.5-0.5 0.5h-0.5-0.5c-0.277 0-0.5-0.223-0.5-0.5v-0.5-0.5c0-0.277 0.223-0.5 0.5-0.5z" fill="#dfdfdf"/>
 </g>
 <g id="22-22-phone-battery" transform="translate(2,-22)">
  <rect x="30" width="22" height="22" rx="0" ry="0" opacity=".001"/>
  <path transform="translate(-2,22)" d="m39-19c-1 0-1 1-1 1v14s0 1 1 1h8c1 0 1-1 1-1v-14s0-1-1-1zm4 3h3v9h-6v-8.998h3zm0 2e-3 -2 4.998h2v3l2-4h-2zm-0.5 9.998h1c0.277 0 0.5 0.223 0.5 0.5v1c0 0.277-0.223 0.5-0.5 0.5h-1c-0.277 0-0.5-0.223-0.5-0.5v-1c0-0.277 0.223-0.5 0.5-0.5z" fill="#f44336"/>
 </g>
 <g id="16-16-phone-battery" transform="translate(21,-42)">
  <rect x="33" y="26" width="16" height="16" rx="0" ry="0" opacity=".001"/>
  <path transform="translate(-21,42)" d="m58.799-14c-0.8 0-0.79883 0.75-0.79883 0.75v10.5s-0.0012 0.75 0.79883 0.75h6.4004c0.8 0 0.80078-0.75 0.80078-0.75v-10.5s-8.42e-4 -0.75-0.80078-0.75h-6.4004zm1.2012 2h2 2v6h-2-2v-6zm2 6 1.5-3.75h-1.5v-2.25l-1.5 3h1.5v3zm-0.5 1h0.5 0.5c0.277 0 0.5 0.223 0.5 0.5v0.5 0.5c0 0.277-0.223 0.5-0.5 0.5h-0.5-0.5c-0.277 0-0.5-0.223-0.5-0.5v-0.5-0.5c0-0.277 0.223-0.5 0.5-0.5z" fill="#f44336"/>
 </g>
 <g id="16-16-phone" transform="translate(54,-10)">
  <rect y="26" width="16" height="16" rx="0" ry="0" opacity=".001"/>
  <path transform="translate(-54,10)" d="m58.799 18c-0.8 0-0.79883 0.75-0.79883 0.75v10.5s-0.0012 0.75 0.79883 0.75h6.4004c0.8 0 0.80078-0.75 0.80078-0.75v-10.5s-8.42e-4 -0.75-0.80078-0.75h-6.4004zm1.2012 2h2 2v6h-4v-6zm1.5 7h0.5 0.5c0.277 0 0.5 0.223 0.5 0.5v0.5 0.5c0 0.277-0.223 0.5-0.5 0.5h-0.5-0.5c-0.277 0-0.5-0.223-0.5-0.5v-0.5-0.5c0-0.277 0.223-0.5 0.5-0.5z" fill="#dfdfdf"/>
 </g>
 <g id="phone">
  <rect width="32" height="32" opacity=".001"/>
  <rect x="6" y="2" width="20" height="30" rx="1.5" ry="1.5" opacity=".2"/>
  <path d="m7.5 1c-0.831 0-1.5 0.669-1.5 1.5v1.5h20v-1.5c0-0.831-0.669-1.5-1.5-1.5h-17zm-1.5 25v3.5c0 0.831 0.669 1.5 1.5 1.5h17c0.831 0 1.5-0.669 1.5-1.5v-3.5h-20z" fill="#595959"/>
  <rect x="6" y="4" width="20" height="22" fill="#333"/>
  <path d="m14.5 2c-0.277 0-0.5 0.21962-0.5 0.49219v0.015625c0 0.27257 0.223 0.49219 0.5 0.49219h3c0.277 0 0.5-0.21962 0.5-0.49219v-0.015625c0-0.27257-0.223-0.49219-0.5-0.49219h-3zm5 0a0.5 0.5 0 0 0-0.5 0.5 0.5 0.5 0 0 0 0.5 0.5 0.5 0.5 0 0 0 0.5-0.5 0.5 0.5 0 0 0-0.5-0.5zm-4.5 25c-0.554 0-1 0.446-1 1v1c0 0.554 0.446 1 1 1h2c0.554 0 1-0.446 1-1v-1c0-0.554-0.446-1-1-1h-2zm-5.5 1c-0.277 0-0.5 0.223-0.5 0.5s0.223 0.5 0.5 0.5h2c0.277 0 0.5-0.223 0.5-0.5s-0.223-0.5-0.5-0.5h-2zm11 0c-0.277 0-0.5 0.223-0.5 0.5s0.223 0.5 0.5 0.5h2c0.277 0 0.5-0.223 0.5-0.5s-0.223-0.5-0.5-0.5h-2z" fill="#333"/>
  <path d="m7.5 1c-0.831 0-1.5 0.669-1.5 1.5v1c0-0.831 0.669-1.5 1.5-1.5h17c0.831 0 1.5 0.669 1.5 1.5v-1c0-0.831-0.669-1.5-1.5-1.5h-17z" fill="#fff" opacity=".1"/>
 </g>
 <g id="phone-battery" transform="translate(0,-32)">
  <rect width="32" height="32" opacity=".001"/>
  <rect x="6" y="2" width="20" height="30" rx="1.5" ry="1.5" opacity=".2"/>
  <path d="m7.5 1c-0.831 0-1.5 0.669-1.5 1.5v1.5h20v-1.5c0-0.831-0.669-1.5-1.5-1.5h-17zm-1.5 25v3.5c0 0.831 0.669 1.5 1.5 1.5h17c0.831 0 1.5-0.669 1.5-1.5v-3.5h-20z" fill="#595959"/>
  <rect x="6" y="4" width="20" height="22" fill="#333"/>
  <path d="m14.5 2c-0.277 0-0.5 0.21962-0.5 0.49219v0.015625c0 0.27257 0.223 0.49219 0.5 0.49219h3c0.277 0 0.5-0.21962 0.5-0.49219v-0.015625c0-0.27257-0.223-0.49219-0.5-0.49219h-3zm5 0a0.5 0.5 0 0 0-0.5 0.5 0.5 0.5 0 0 0 0.5 0.5 0.5 0.5 0 0 0 0.5-0.5 0.5 0.5 0 0 0-0.5-0.5zm-4.5 25c-0.554 0-1 0.446-1 1v1c0 0.554 0.446 1 1 1h2c0.554 0 1-0.446 1-1v-1c0-0.554-0.446-1-1-1h-2zm-5.5 1c-0.277 0-0.5 0.223-0.5 0.5s0.223 0.5 0.5 0.5h2c0.277 0 0.5-0.223 0.5-0.5s-0.223-0.5-0.5-0.5h-2zm11 0c-0.277 0-0.5 0.223-0.5 0.5s0.223 0.5 0.5 0.5h2c0.277 0 0.5-0.223 0.5-0.5s-0.223-0.5-0.5-0.5h-2z" fill="#333"/>
  <path d="m7.5 1c-0.831 0-1.5 0.669-1.5 1.5v1c0-0.831 0.669-1.5 1.5-1.5h17c0.831 0 1.5 0.669 1.5 1.5v-1c0-0.831-0.669-1.5-1.5-1.5h-17z" fill="#fff" opacity=".1"/>
  <path d="m16 10v5h4l-4 7v-5h-4z" opacity=".2"/>
  <path d="m16 9v5h4l-4 7v-5h-4z" fill="#f45744"/>
 </g>
</svg>

<svg xmlns="http://www.w3.org/2000/svg" width="32" height="32" version="1.1">
 <g id="22-22-phone" transform="translate(32,9.9999997)">
  <rect style="opacity:0.001" width="22" height="22" x="0" y="0" rx="0" ry="0"/>
  <path style="fill:#dfdfdf" transform="translate(-32,-9.9999997)" d="M 39 13 C 38 13 38 14 38 14 L 38 28 C 38 28 38 29 39 29 L 47 29 C 48 29 48 28 48 28 L 48 14 C 48 14 48 13 47 13 L 39 13 z M 46 16 L 46 25 L 40 25 L 40 16.001953 L 46 16 z M 42.5 26 L 43 26 L 43.5 26 C 43.777 26 44 26.223 44 26.5 L 44 27 L 44 27.5 C 44 27.777 43.777 28 43.5 28 L 43 28 L 42.5 28 C 42.223 28 42 27.777 42 27.5 L 42 27 L 42 26.5 C 42 26.223 42.223 26 42.5 26 z"/>
 </g>
 <g id="22-22-phone-battery" transform="translate(2,-22)">
  <rect style="opacity:0.001" width="22" height="22" x="30" y="0" rx="0" ry="0"/>
  <path style="fill:#f44336" transform="translate(-2,22)" d="m 39,-19 c -1,0 -1,1 -1,1 v 14 c 0,0 0,1 1,1 h 8 c 1,0 1,-1 1,-1 v -14 c 0,0 0,-1 -1,-1 z m 4,3 h 3 v 9 h -6 v -8.998047 h 3 z m 0,0.002 L 41,-11 h 2 v 3 l 2,-4 H 43 Z M 42.5,-6 h 1 c 0.277,0 0.5,0.223 0.5,0.5 v 1 c 0,0.277 -0.223,0.5 -0.5,0.5 h -1 C 42.223,-4 42,-4.223 42,-4.5 v -1 C 42,-5.777 42.223,-6 42.5,-6 Z"/>
 </g>
 <g id="16-16-phone-battery" transform="translate(21,-42)">
  <rect style="opacity:0.001" width="16" height="16" x="33" y="26" rx="0" ry="0"/>
  <path style="fill:#f44336" transform="translate(-21,42)" d="M 58.798828 -14 C 57.998828 -14 58 -13.25 58 -13.25 L 58 -2.75 C 58 -2.75 57.9988 -2 58.798828 -2 L 65.199219 -2 C 65.999219 -2 66 -2.75 66 -2.75 L 66 -13.25 C 66 -13.25 65.999158 -14 65.199219 -14 L 58.798828 -14 z M 60 -12 L 62 -12 L 64 -12 L 64 -6 L 62 -6 L 60 -6 L 60 -12 z M 62 -6 L 63.5 -9.75 L 62 -9.75 L 62 -12 L 60.5 -9 L 62 -9 L 62 -6 z M 61.5 -5 L 62 -5 L 62.5 -5 C 62.777 -5 63 -4.777 63 -4.5 L 63 -4 L 63 -3.5 C 63 -3.223 62.777 -3 62.5 -3 L 62 -3 L 61.5 -3 C 61.223 -3 61 -3.223 61 -3.5 L 61 -4 L 61 -4.5 C 61 -4.777 61.223 -5 61.5 -5 z"/>
 </g>
 <g id="16-16-phone" transform="translate(54,-10)">
  <rect style="opacity:0.001" width="16" height="16" x="0" y="26" rx="0" ry="0"/>
  <path style="fill:#dfdfdf" transform="translate(-54,10)" d="M 58.798828 18 C 57.998828 18 58 18.75 58 18.75 L 58 29.25 C 58 29.25 57.9988 30 58.798828 30 L 65.199219 30 C 65.999219 30 66 29.25 66 29.25 L 66 18.75 C 66 18.75 65.999158 18 65.199219 18 L 58.798828 18 z M 60 20 L 62 20 L 64 20 L 64 26 L 60 26 L 60 20 z M 61.5 27 L 62 27 L 62.5 27 C 62.777 27 63 27.223 63 27.5 L 63 28 L 63 28.5 C 63 28.777 62.777 29 62.5 29 L 62 29 L 61.5 29 C 61.223 29 61 28.777 61 28.5 L 61 28 L 61 27.5 C 61 27.223 61.223 27 61.5 27 z"/>
 </g>
 <g id="phone">
  <rect style="opacity:0.001" width="32" height="32" x="0" y="0"/>
  <g>
   <rect style="opacity:0.2" width="20" height="30" x="6" y="2" rx="1.5" ry="1.5"/>
   <path style="fill:#595959" d="M 7.5 1 C 6.669 1 6 1.669 6 2.5 L 6 4 L 26 4 L 26 2.5 C 26 1.669 25.331 1 24.5 1 L 7.5 1 z M 6 26 L 6 29.5 C 6 30.331 6.669 31 7.5 31 L 24.5 31 C 25.331 31 26 30.331 26 29.5 L 26 26 L 6 26 z"/>
   <rect style="fill:#333333" width="20" height="22" x="6" y="4"/>
   <path style="fill:#333333" d="M 14.5 2 C 14.223 2 14 2.2196195 14 2.4921875 L 14 2.5078125 C 14 2.7803805 14.223 3 14.5 3 L 17.5 3 C 17.777 3 18 2.7803805 18 2.5078125 L 18 2.4921875 C 18 2.2196195 17.777 2 17.5 2 L 14.5 2 z M 19.5 2 A 0.5 0.5 0 0 0 19 2.5 A 0.5 0.5 0 0 0 19.5 3 A 0.5 0.5 0 0 0 20 2.5 A 0.5 0.5 0 0 0 19.5 2 z M 15 27 C 14.446 27 14 27.446 14 28 L 14 29 C 14 29.554 14.446 30 15 30 L 17 30 C 17.554 30 18 29.554 18 29 L 18 28 C 18 27.446 17.554 27 17 27 L 15 27 z M 9.5 28 C 9.223 28 9 28.223 9 28.5 C 9 28.777 9.223 29 9.5 29 L 11.5 29 C 11.777 29 12 28.777 12 28.5 C 12 28.223 11.777 28 11.5 28 L 9.5 28 z M 20.5 28 C 20.223 28 20 28.223 20 28.5 C 20 28.777 20.223 29 20.5 29 L 22.5 29 C 22.777 29 23 28.777 23 28.5 C 23 28.223 22.777 28 22.5 28 L 20.5 28 z"/>
   <path style="fill:#ffffff;opacity:0.1" d="M 7.5 1 C 6.669 1 6 1.669 6 2.5 L 6 3.5 C 6 2.669 6.669 2 7.5 2 L 24.5 2 C 25.331 2 26 2.669 26 3.5 L 26 2.5 C 26 1.669 25.331 1 24.5 1 L 7.5 1 z"/>
  </g>
 </g>
 <g id="phone-battery" transform="translate(0,-32)">
  <rect style="opacity:0.001" width="32" height="32" x="0" y="0"/>
  <rect style="opacity:0.2" width="20" height="30" x="6" y="2" rx="1.5" ry="1.5"/>
  <path style="fill:#595959" d="M 7.5 1 C 6.669 1 6 1.669 6 2.5 L 6 4 L 26 4 L 26 2.5 C 26 1.669 25.331 1 24.5 1 L 7.5 1 z M 6 26 L 6 29.5 C 6 30.331 6.669 31 7.5 31 L 24.5 31 C 25.331 31 26 30.331 26 29.5 L 26 26 L 6 26 z"/>
  <rect style="fill:#333333" width="20" height="22" x="6" y="4"/>
  <path style="fill:#333333" d="M 14.5 2 C 14.223 2 14 2.2196195 14 2.4921875 L 14 2.5078125 C 14 2.7803805 14.223 3 14.5 3 L 17.5 3 C 17.777 3 18 2.7803805 18 2.5078125 L 18 2.4921875 C 18 2.2196195 17.777 2 17.5 2 L 14.5 2 z M 19.5 2 A 0.5 0.5 0 0 0 19 2.5 A 0.5 0.5 0 0 0 19.5 3 A 0.5 0.5 0 0 0 20 2.5 A 0.5 0.5 0 0 0 19.5 2 z M 15 27 C 14.446 27 14 27.446 14 28 L 14 29 C 14 29.554 14.446 30 15 30 L 17 30 C 17.554 30 18 29.554 18 29 L 18 28 C 18 27.446 17.554 27 17 27 L 15 27 z M 9.5 28 C 9.223 28 9 28.223 9 28.5 C 9 28.777 9.223 29 9.5 29 L 11.5 29 C 11.777 29 12 28.777 12 28.5 C 12 28.223 11.777 28 11.5 28 L 9.5 28 z M 20.5 28 C 20.223 28 20 28.223 20 28.5 C 20 28.777 20.223 29 20.5 29 L 22.5 29 C 22.777 29 23 28.777 23 28.5 C 23 28.223 22.777 28 22.5 28 L 20.5 28 z"/>
  <path style="fill:#ffffff;opacity:0.1" d="M 7.5 1 C 6.669 1 6 1.669 6 2.5 L 6 3.5 C 6 2.669 6.669 2 7.5 2 L 24.5 2 C 25.331 2 26 2.669 26 3.5 L 26 2.5 C 26 1.669 25.331 1 24.5 1 L 7.5 1 z"/>
  <path style="opacity:0.2" d="m 16,10 v 5 h 4 l -4,7 v -5 h -4 z"/>
  <path style="fill:#f45744" d="m 16,9 v 5 h 4 l -4,7 v -5 h -4 z"/>
 </g>
</svg>
